icons/24x24_dropbox_filled.svg

<svg xmlns="http://www.w3.org/2000/svg" width="24" height="24" viewBox="0 0 24 24">
  <path fill-rule="evenodd" d="M6.4997664,3 L12.0004672,6.5 L6.4997664,10 L1,6.5 L6.4997664,3 Z M17.5002336,3 L23,6.5 L17.5002336,10 L12.0004672,6.5 L17.5002336,3 Z M1,13.5 L6.4997664,10 L12.0004672,13.5 L6.4997664,17 L1,13.5 Z M17.5002336,10 L23,13.5 L17.5002336,17 L12.0004672,13.5 L17.5002336,10 Z M6.4997664,18.5 L12.0004672,15 L17.5002336,18.5 L12.0004672,22 L6.4997664,18.5 Z"/>
</svg>

<svg width="24" height="24" fill="none" xmlns="http://www.w3.org/2000/svg"><path fill-rule="evenodd" clip-rule="evenodd" d="M6.5 3 12 6.5 6.5 10 1 6.5 6.5 3Zm11 0L23 6.5 17.5 10 12 6.5 17.5 3ZM1 13.5 6.5 10l5.5 3.5L6.5 17 1 13.5ZM17.5 10l5.5 3.5-5.5 3.5-5.5-3.5 5.5-3.5Zm-11 8.5L12 15l5.5 3.5L12 22l-5.5-3.5Z" fill="#000"/></svg>
